build/img/talent-figure.svg

<svg width="489" height="624" viewBox="0 0 489 624" fill="none" xmlns="http://www.w3.org/2000/svg">
<path fill-rule="evenodd" clip-rule="evenodd" d="M210.458 33.0209C214.981 21.1124 217.243 15.1582 221.131 10.7719C224.567 6.89687 228.891 3.91346 233.734 2.07782C239.215 0 245.584 0 258.322 0H437.8C455.722 0 464.683 0 471.528 3.48779C477.549 6.55574 482.444 11.4511 485.512 17.4723C489 24.3175 489 33.2783 489 51.2V572.8C489 590.722 489 599.682 485.512 606.528C482.444 612.549 477.549 617.444 471.528 620.512C464.683 624 455.722 624 437.8 624H60.2147C35.2933 624 22.8327 624 14.8439 618.764C7.85568 614.185 2.93585 607.053 1.13571 598.894C-0.92217 589.567 3.50213 577.918 12.3507 554.621L210.458 33.0209Z" fill="#C897E4"/>
</svg>

<?xml version="1.0" encoding="utf-8"?>
<!-- Generator: Adobe Illustrator 25.1.0, SVG Export Plug-In . SVG Version: 6.00 Build 0)  -->
<svg version="1.1" id="Capa_1" xmlns="http://www.w3.org/2000/svg" xmlns:xlink="http://www.w3.org/1999/xlink" x="0px" y="0px"
	 viewBox="0 0 489 624" style="enable-background:new 0 0 489 624;" xml:space="preserve">
<style type="text/css">
	.st0{fill-rule:evenodd;clip-rule:evenodd;}
</style>
<path class="st0" d="M210.5,33c4.5-11.9,6.8-17.9,10.7-22.2c3.4-3.9,7.8-6.9,12.6-8.7C239.2,0,245.6,0,258.3,0h179.5
	c17.9,0,26.9,0,33.7,3.5c6,3.1,10.9,8,14,14c3.5,6.8,3.5,15.8,3.5,33.7v521.6c0,17.9,0,26.9-3.5,33.7c-3.1,6-8,10.9-14,14
	c-6.8,3.5-15.8,3.5-33.7,3.5H60.2c-24.9,0-37.4,0-45.4-5.2c-7-4.6-11.9-11.7-13.7-19.9c-2.1-9.3,2.4-21,11.2-44.3L210.5,33z"/>
</svg>
